public/Frame 2.svg

<svg width="200" height="178" viewBox="0 0 263 178" fill="none" xmlns="http://www.w3.org/2000/svg">
<line x1="262" y1="1" x2="262" y2="169" stroke="#FFC107" stroke-width="2" stroke-linecap="round" stroke-dasharray="4 4"/>
<path d="M0.292885 169.293C-0.0976388 169.683 -0.0976388 170.317 0.292885 170.707L6.65685 177.071C7.04737 177.462 7.68054 177.462 8.07106 177.071C8.46158 176.681 8.46158 176.047 8.07106 175.657L2.41421 170L8.07106 164.343C8.46158 163.953 8.46158 163.319 8.07106 162.929C7.68054 162.538 7.04737 162.538 6.65685 162.929L0.292885 169.293ZM259.03 169C258.478 169 258.03 169.448 258.03 170C258.03 170.552 258.478 171 259.03 171V169ZM255.091 171C255.643 171 256.091 170.552 256.091 170C256.091 169.448 255.643 169 255.091 169V171ZM251.152 169C250.599 169 250.152 169.448 250.152 170C250.152 170.552 250.599 171 251.152 171V169ZM247.212 171C247.764 171 248.212 170.552 248.212 170C248.212 169.448 247.764 169 247.212 169V171ZM243.273 169C242.72 169 242.273 169.448 242.273 170C242.273 170.552 242.72 171 243.273 171V169ZM239.333 171C239.886 171 240.333 170.552 240.333 170C240.333 169.448 239.886 169 239.333 169V171ZM235.394 169C234.842 169 234.394 169.448 234.394 170C234.394 170.552 234.842 171 235.394 171V169ZM231.455 171C232.007 171 232.455 170.552 232.455 170C232.455 169.448 232.007 169 231.455 169V171ZM227.515 169C226.963 169 226.515 169.448 226.515 170C226.515 170.552 226.963 171 227.515 171V169ZM223.576 171C224.128 171 224.576 170.552 224.576 170C224.576 169.448 224.128 169 223.576 169V171ZM219.636 169C219.084 169 218.636 169.448 218.636 170C218.636 170.552 219.084 171 219.636 171V169ZM215.697 171C216.249 171 216.697 170.552 216.697 170C216.697 169.448 216.249 169 215.697 169V171ZM211.758 169C211.205 169 210.758 169.448 210.758 170C210.758 170.552 211.205 171 211.758 171V169ZM207.818 171C208.37 171 208.818 170.552 208.818 170C208.818 169.448 208.37 169 207.818 169V171ZM203.879 169C203.327 169 202.879 169.448 202.879 170C202.879 170.552 203.327 171 203.879 171V169ZM199.939 171C200.492 171 200.939 170.552 200.939 170C200.939 169.448 200.492 169 199.939 169V171ZM196 169C195.448 169 195 169.448 195 170C195 170.552 195.448 171 196 171V169ZM192.061 171C192.613 171 193.061 170.552 193.061 170C193.061 169.448 192.613 169 192.061 169V171ZM188.121 169C187.569 169 187.121 169.448 187.121 170C187.121 170.552 187.569 171 188.121 171V169ZM184.182 171C184.734 171 185.182 170.552 185.182 170C185.182 169.448 184.734 169 184.182 169V171ZM180.242 169C179.69 169 179.242 169.448 179.242 170C179.242 170.552 179.69 171 180.242 171V169ZM176.303 171C176.855 171 177.303 170.552 177.303 170C177.303 169.448 176.855 169 176.303 169V171ZM172.364 169C171.811 169 171.364 169.448 171.364 170C171.364 170.552 171.811 171 172.364 171V169ZM168.424 171C168.977 171 169.424 170.552 169.424 170C169.424 169.448 168.977 169 168.424 169V171ZM164.485 169C163.933 169 163.485 169.448 163.485 170C163.485 170.552 163.933 171 164.485 171V169ZM160.545 171C161.098 171 161.545 170.552 161.545 170C161.545 169.448 161.098 169 160.545 169V171ZM156.606 169C156.054 169 155.606 169.448 155.606 170C155.606 170.552 156.054 171 156.606 171V169ZM152.667 171C153.219 171 153.667 170.552 153.667 170C153.667 169.448 153.219 169 152.667 169V171ZM148.727 169C148.175 169 147.727 169.448 147.727 170C147.727 170.552 148.175 171 148.727 171V169ZM144.788 171C145.34 171 145.788 170.552 145.788 170C145.788 169.448 145.34 169 144.788 169V171ZM140.849 169C140.296 169 139.849 169.448 139.849 170C139.849 170.552 140.296 171 140.849 171V169ZM136.909 171C137.461 171 137.909 170.552 137.909 170C137.909 169.448 137.461 169 136.909 169V171ZM132.97 169C132.417 169 131.97 169.448 131.97 170C131.97 170.552 132.417 171 132.97 171V169ZM129.03 171C129.583 171 130.03 170.552 130.03 170C130.03 169.448 129.583 169 129.03 169V171ZM125.091 169C124.539 169 124.091 169.448 124.091 170C124.091 170.552 124.539 171 125.091 171V169ZM121.152 171C121.704 171 122.152 170.552 122.152 170C122.152 169.448 121.704 169 121.152 169V171ZM117.212 169C116.66 169 116.212 169.448 116.212 170C116.212 170.552 116.66 171 117.212 171V169ZM113.273 171C113.825 171 114.273 170.552 114.273 170C114.273 169.448 113.825 169 113.273 169V171ZM109.333 169C108.781 169 108.333 169.448 108.333 170C108.333 170.552 108.781 171 109.333 171V169ZM105.394 171C105.946 171 106.394 170.552 106.394 170C106.394 169.448 105.946 169 105.394 169V171ZM101.455 169C100.902 169 100.455 169.448 100.455 170C100.455 170.552 100.902 171 101.455 171V169ZM97.5152 171C98.0675 171 98.5152 170.552 98.5152 170C98.5152 169.448 98.0675 169 97.5152 169V171ZM93.5758 169C93.0235 169 92.5758 169.448 92.5758 170C92.5758 170.552 93.0235 171 93.5758 171V169ZM89.6364 171C90.1887 171 90.6364 170.552 90.6364 170C90.6364 169.448 90.1887 169 89.6364 169V171ZM85.697 169C85.1448 169 84.697 169.448 84.697 170C84.697 170.552 85.1448 171 85.697 171V169ZM81.7576 171C82.3099 171 82.7576 170.552 82.7576 170C82.7576 169.448 82.3099 169 81.7576 169V171ZM77.8182 169C77.266 169 76.8182 169.448 76.8182 170C76.8182 170.552 77.266 171 77.8182 171V169ZM73.8789 171C74.4311 171 74.8789 170.552 74.8789 170C74.8789 169.448 74.4311 169 73.8789 169V171ZM69.9395 169C69.3872 169 68.9395 169.448 68.9395 170C68.9395 170.552 69.3872 171 69.9395 171V169ZM66.0001 171C66.5524 171 67.0001 170.552 67.0001 170C67.0001 169.448 66.5524 169 66.0001 169V171ZM62.0607 169C61.5084 169 61.0607 169.448 61.0607 170C61.0607 170.552 61.5084 171 62.0607 171V169ZM58.1213 171C58.6736 171 59.1213 170.552 59.1213 170C59.1213 169.448 58.6736 169 58.1213 169V171ZM54.1819 169C53.6296 169 53.1819 169.448 53.1819 170C53.1819 170.552 53.6296 171 54.1819 171V169ZM50.2425 171C50.7948 171 51.2425 170.552 51.2425 170C51.2425 169.448 50.7948 169 50.2425 169V171ZM46.3031 169C45.7508 169 45.3031 169.448 45.3031 170C45.3031 170.552 45.7508 171 46.3031 171V169ZM42.3637 171C42.916 171 43.3637 170.552 43.3637 170C43.3637 169.448 42.916 169 42.3637 169V171ZM38.4243 169C37.872 169 37.4243 169.448 37.4243 170C37.4243 170.552 37.872 171 38.4243 171V169ZM34.4849 171C35.0372 171 35.4849 170.552 35.4849 170C35.4849 169.448 35.0372 169 34.4849 169V171ZM30.5455 169C29.9933 169 29.5455 169.448 29.5455 170C29.5455 170.552 29.9933 171 30.5455 171V169ZM26.6062 171C27.1584 171 27.6062 170.552 27.6062 170C27.6062 169.448 27.1584 169 26.6062 169V171ZM22.6668 169C22.1145 169 21.6668 169.448 21.6668 170C21.6668 170.552 22.1145 171 22.6668 171V169ZM18.7274 171C19.2796 171 19.7274 170.552 19.7274 170C19.7274 169.448 19.2796 169 18.7274 169V171ZM14.788 169C14.2357 169 13.788 169.448 13.788 170C13.788 170.552 14.2357 171 14.788 171V169ZM10.8486 171C11.4009 171 11.8486 170.552 11.8486 170C11.8486 169.448 11.4009 169 10.8486 169V171ZM6.90919 169C6.3569 169 5.90919 169.448 5.90919 170C5.90919 170.552 6.3569 171 6.90919 171V169ZM2.96978 171C3.52207 171 3.96978 170.552 3.96978 170C3.96978 169.448 3.52207 169 2.96978 169V171ZM261 169H259.03V171H261V169ZM255.091 169H251.152V171H255.091V169ZM247.212 169H243.273V171H247.212V169ZM239.333 169H235.394V171H239.333V169ZM231.455 169H227.515V171H231.455V169ZM223.576 169H219.636V171H223.576V169ZM215.697 169H211.758V171H215.697V169ZM207.818 169H203.879V171H207.818V169ZM199.939 169H196V171H199.939V169ZM192.061 169H188.121V171H192.061V169ZM184.182 169H180.242V171H184.182V169ZM176.303 169H172.364V171H176.303V169ZM168.424 169H164.485V171H168.424V169ZM160.545 169H156.606V171H160.545V169ZM152.667 169H148.727V171H152.667V169ZM144.788 169L140.849 169V171L144.788 171V169ZM136.909 169H132.97V171H136.909V169ZM129.03 169H125.091V171H129.03V169ZM121.152 169H117.212V171H121.152V169ZM113.273 169H109.333V171H113.273V169ZM105.394 169H101.455V171H105.394V169ZM97.5152 169H93.5758V171H97.5152V169ZM89.6364 169H85.697V171H89.6364V169ZM81.7576 169H77.8182V171H81.7576V169ZM73.8789 169H69.9395V171H73.8789V169ZM66.0001 169H62.0607V171H66.0001V169ZM58.1213 169H54.1819V171H58.1213V169ZM50.2425 169H46.3031V171H50.2425V169ZM42.3637 169H38.4243V171H42.3637V169ZM34.4849 169H30.5455V171H34.4849V169ZM26.6062 169H22.6668V171H26.6062V169ZM18.7274 169H14.788V171H18.7274V169ZM10.8486 169H6.90919V171H10.8486V169ZM2.96978 169H0.999992V171H2.96978V169Z" fill="#FFC107"/>
</svg>

<svg xmlns="http://www.w3.org/2000/svg" width="200" height="178" fill="none" viewBox="0 0 263 178"><path stroke="#FFC107" stroke-dasharray="4 4" stroke-linecap="round" stroke-width="2" d="M262 1v168"/><path fill="#FFC107" d="M.293 169.293a1 1 0 0 0 0 1.414l6.364 6.364a1 1 0 1 0 1.414-1.414L2.414 170l5.657-5.657a1 1 0 1 0-1.414-1.414zM259.03 169a1 1 0 0 0 0 2zm-3.939 2a1 1 0 0 0 0-2zm-3.939-2a1 1 0 1 0 0 2zm-3.94 2a1 1 0 0 0 0-2zm-3.939-2a1 1 0 1 0 0 2zm-3.94 2a1 1 0 1 0 0-2zm-3.939-2a1 1 0 0 0 0 2zm-3.939 2a1 1 0 0 0 0-2zm-3.94-2a1 1 0 0 0 0 2zm-3.939 2a1 1 0 0 0 0-2zm-3.94-2a1 1 0 0 0 0 2zm-3.939 2a1 1 0 0 0 0-2zm-3.939-2a1 1 0 1 0 0 2zm-3.94 2a1 1 0 0 0 0-2zm-3.939-2a1 1 0 0 0 0 2zm-3.94 2a1 1 0 1 0 0-2zM196 169a1 1 0 0 0 0 2zm-3.939 2a1 1 0 0 0 0-2zm-3.94-2a1 1 0 0 0 0 2zm-3.939 2a1 1 0 0 0 0-2zm-3.94-2a1 1 0 0 0 0 2zm-3.939 2a1 1 0 0 0 0-2zm-3.939-2a1 1 0 1 0 0 2zm-3.94 2a1 1 0 1 0 0-2zm-3.939-2a1 1 0 0 0 0 2zm-3.94 2a1 1 0 1 0 0-2zm-3.939-2a1 1 0 0 0 0 2zm-3.939 2a1 1 0 0 0 0-2zm-3.94-2a1 1 0 0 0 0 2zm-3.939 2a1 1 0 0 0 0-2zm-3.939-2a1 1 0 1 0 0 2zm-3.94 2a1 1 0 0 0 0-2zm-3.939-2a1 1 0 1 0 0 2zm-3.94 2a1 1 0 1 0 0-2zm-3.939-2a1 1 0 0 0 0 2zm-3.939 2a1 1 0 0 0 0-2zm-3.94-2a1 1 0 0 0 0 2zm-3.939 2a1 1 0 0 0 0-2zm-3.94-2a1 1 0 0 0 0 2zm-3.939 2a1 1 0 0 0 0-2zm-3.939-2a1 1 0 1 0 0 2zm-3.94 2a1 1 0 0 0 0-2zm-3.94-2a1 1 0 0 0 0 2zm-3.939 2a1 1 0 0 0 0-2zm-3.939-2a1 1 0 0 0 0 2zm-3.94 2a1 1 0 0 0 0-2zm-3.939-2a1 1 0 0 0 0 2zm-3.94 2a1 1 0 0 0 0-2zm-3.939-2a1 1 0 0 0 0 2zM66 171a1 1 0 0 0 0-2zm-3.94-2a1 1 0 0 0 0 2zm-3.939 2a1 1 0 0 0 0-2zm-3.94-2a1 1 0 0 0 0 2zm-3.938 2a1 1 0 0 0 0-2zm-3.94-2a1 1 0 0 0 0 2zm-3.94 2a1 1 0 0 0 0-2zm-3.939-2a1 1 0 0 0 0 2zm-3.94 2a1 1 0 0 0 0-2zm-3.939-2a1 1 0 0 0 0 2zm-3.939 2a1 1 0 0 0 0-2zm-3.94-2a1 1 0 0 0 0 2zm-3.939 2a1 1 0 0 0 0-2zm-3.939-2a1 1 0 0 0 0 2zm-3.94 2a1 1 0 0 0 0-2zm-3.939-2a1 1 0 0 0 0 2zm-3.94 2a1 1 0 0 0 0-2zM261 169h-1.97v2H261zm-5.909 0h-3.939v2h3.939zm-7.879 0h-3.939v2h3.939zm-7.879 0h-3.939v2h3.939zm-7.878 0h-3.94v2h3.94zm-7.879 0h-3.94v2h3.94zm-7.879 0h-3.939v2h3.939zm-7.879 0h-3.939v2h3.939zm-7.879 0H196v2h3.939zm-7.878 0h-3.94v2h3.94zm-7.879 0h-3.94v2h3.94zm-7.879 0h-3.939v2h3.939zm-7.879 0h-3.939v2h3.939zm-7.879 0h-3.939v2h3.939zm-7.878 0h-3.94v2h3.94zm-7.879 0h-3.939v2h3.939zm-7.879 0h-3.939v2h3.939zm-7.879 0h-3.939v2h3.939zm-7.878 0h-3.94v2h3.94zm-7.879 0h-3.94v2h3.94zm-7.879 0h-3.939v2h3.939zm-7.879 0h-3.94v2h3.94zm-7.879 0h-3.939v2h3.94zm-7.878 0h-3.94v2h3.94zm-7.88 0H69.94v2h3.94zM66 169h-3.94v2H66zm-7.879 0h-3.94v2h3.94zm-7.879 0h-3.939v2h3.94zm-7.878 0h-3.94v2h3.94zm-7.88 0h-3.939v2h3.94zm-7.878 0h-3.94v2h3.94zm-7.879 0h-3.939v2h3.94zm-7.878 0h-3.94v2h3.94zm-7.88 0H1v2h1.97z"/></svg>
